X: 7
T: The Wren
R: reel
M: 4/4
L: 1/8
K: Emin
|: E2 B2 B2 AB | c3 B A2 FG | A2 A2 AB AG | FEFG G2 F2 |E2 B2 B2 AB | c3 B A2 FG | A2 A2 ABAG | FEFG E4 :||: E2 E2 F2 G2 | E2 E2 F2 G2 | A2 A2 ABAG | FEFG G2 F2 |E2 E2 F2 G2 | E2 E2 F2 G2 | A2 A2 ABAG | FEFG E4 :||: E2 B2 B2 AB | c3 B A2 FG | A2 A2 ABAG |[1 FEFG G2 F2 :|[2 FEFG E4 |||: E2 E2 F2 G2 | E2 E2 F2 G2 | A2 A2 ABAG |[1 FEFG G2 F2 :|[2 FEFG E4 ||


Tune 2828	Setting 2828

